source/img/sprite.svg

<svg xmlns="http://www.w3.org/2000/svg">
  <symbol viewBox="0 0 24 24" id="icon-vk">
    <path d="M23.45 5.948C23.616 5.402 23.45 5 22.655 5H20.03C19.362 5 19.054 5.347 18.887 5.73C18.887 5.73 17.552 8.926 15.661 11.002C15.049 11.604 14.771 11.795 14.437 11.795C14.27 11.795 14.019 11.604 14.019 11.057V5.948C14.019 5.292 13.835 5 13.279 5H9.151C8.734 5 8.483 5.304 8.483 5.593C8.483 6.214 9.429 6.358 9.526 8.106V11.904C9.526 12.737 9.373 12.888 9.039 12.888C8.149 12.888 5.984 9.677 4.699 6.003C4.45 5.288 4.198 5 3.527 5H0.9C0.15 5 0 5.347 0 5.73C0 6.412 0.89 9.8 4.145 14.281C6.315 17.341 9.37 19 12.153 19C13.822 19 14.028 18.632 14.028 17.997V15.684C14.028 14.947 14.186 14.8 14.715 14.8C15.105 14.8 15.772 14.992 17.33 16.467C19.11 18.216 19.403 19 20.405 19H23.03C23.78 19 24.156 18.632 23.94 17.904C23.702 17.18 22.852 16.129 21.725 14.882C21.113 14.172 20.195 13.407 19.916 13.024C19.527 12.533 19.638 12.314 19.916 11.877C19.916 11.877 23.116 7.451 23.449 5.948H23.45Z"/>
  </symbol>

  <symbol viewBox="0 0 24 24" id="icon-telegram">
    <path d="M22.4393 4.62225L19.2705 19.566C19.0313 20.6205 18.408 20.883 17.5223 20.3865L12.6938 16.8285L10.3643 19.0695C10.1063 19.3275 9.891 19.5428 9.39375 19.5428L9.741 14.6258L18.6893 6.54C19.0785 6.1935 18.6045 6.00075 18.0848 6.348L7.02225 13.314L2.25976 11.823C1.22401 11.4998 1.20526 10.7873 2.47576 10.29L21.1035 3.11325C21.966 2.79 22.7205 3.30525 22.4393 4.623V4.62225Z"/>
  </symbol>

  <symbol viewBox="0 0 24 24" id="icon-youtube">
    <path d="M19.1813 5H4.81331C3.30618 5 2 6.3 2 7.8V16.1C2 17.7 3.30618 19 4.81331 19H19.1813C20.7889 19 21.9946 17.7 21.9946 16.2V7.8C22.095 6.3 20.7889 5 19.1813 5ZM9.03326 15.4V8.6L15.8656 12L9.03326 15.4Z"/>
  </symbol>

  <symbol viewBox="0 0 27 35" id="icon-htmlacademy">
    <path d="M13.6 0H13.5L0 1.4V26.1L13.5 34.1L26.9 26.1V1.4L13.6 0ZM25 12.1L13.5 5.3V5.2H13.4L13.3 5.1V5.2L1.9 12.1V3.1L13.4 1.9L25 3.1V12.1ZM13.4 6.8L24.9 13.5L20.4 16.1L13.3 11.9V13.3L19.2 16.8L18.3 17.3L13.3 14.3V15.7L17.1 18L16.3 18.5L13.3 16.7V18.1L15.2 19.2L13.4 20.3L2 13.6L13.4 6.8ZM1.9 15.1L13.3 21.9V22.9L5.4 18.2V19.6L13.4 24.4V25.5L5.4 20.8V22.2L13.4 27L21.5 22.1V16.9L24.9 14.9V24.9L13.4 31.8L1.9 25V15.1Z"/>
  </symbol>

  <symbol viewBox="0 0 23 21" id="icon-like">
    <path d="M12.9636 3.78L12.3364 6.825L11.7091 9.45H14.3227H20.8045V11.55C20.8045 11.55 20.8045 11.55 20.8045 11.655L17.7727 18.9H8.36364V8.4L12.9636 3.78ZM2.09091 10.5V18.9V10.5ZM13.8 0L6.9 6.93C6.48182 7.245 6.27273 7.77 6.27273 8.4V18.9C6.27273 20.055 7.21364 21 8.36364 21H17.7727C18.6091 21 19.3409 20.475 19.6545 19.74L22.7909 12.285C22.8955 12.075 22.8955 11.76 22.8955 11.55V9.45H23C23 8.295 22.0591 7.35 20.9091 7.35H14.3227L15.3682 2.52V2.205C15.3682 1.785 15.1591 1.365 14.95 1.05L13.8 0ZM4.18182 8.4H0V21H4.18182V8.4Z"/>
  </symbol>
</svg>

<svg xmlns="http://www.w3.org/2000/svg">
  <symbol viewBox="0 0 24 24" id="icon-vk">
    <path d="M23.45 5.95c.17-.55 0-.95-.8-.95h-2.62c-.67 0-.98.35-1.14.73 0 0-1.34 3.2-3.23 5.27-.61.6-.89.8-1.22.8-.17 0-.42-.2-.42-.74V5.95c0-.66-.18-.95-.74-.95H9.15c-.42 0-.67.3-.67.6 0 .61.95.76 1.05 2.5v3.8c0 .84-.16.99-.5.99-.88 0-3.05-3.21-4.33-6.89-.25-.71-.5-1-1.17-1H.9c-.75 0-.9.35-.9.73 0 .68.89 4.07 4.14 8.55C6.32 17.34 9.38 19 12.15 19c1.67 0 1.88-.37 1.88-1v-2.32c0-.73.16-.88.69-.88.38 0 1.05.2 2.61 1.67C19.11 18.22 19.4 19 20.41 19h2.62c.75 0 1.13-.37.91-1.1-.24-.72-1.09-1.77-2.21-3.02-.62-.7-1.54-1.47-1.81-1.86-.4-.49-.28-.7 0-1.14 0 0 3.2-4.43 3.53-5.93Z"/>
  </symbol>

  <symbol viewBox="0 0 24 24" id="icon-telegram">
    <path d="m22.44 4.62-3.17 14.95c-.24 1.05-.86 1.31-1.75.82l-4.83-3.56-2.33 2.24c-.25.26-.47.47-.97.47l.35-4.91 8.95-8.09c.39-.35-.09-.54-.6-.2L7.01 13.32l-4.76-1.49c-1.04-.32-1.05-1.03.22-1.53L21.1 3.11c.87-.32 1.62.2 1.34 1.51Z"/>
  </symbol>

  <symbol viewBox="0 0 24 24" id="icon-youtube">
    <path d="M19.2 5H4.8A2.9 2.9 0 0 0 2 7.8v8.3C2 17.7 3.3 19 4.8 19h14.4c1.6 0 2.8-1.3 2.8-2.8V7.8C22 6.3 20.8 5 19.2 5ZM9 15.4V8.6L16 12 9 15.4Z"/>
  </symbol>

  <symbol viewBox="0 0 27 35" id="icon-htmlacademy">
    <path d="M13.6 0h-.1L0 1.4v24.7l13.5 8 13.4-8V1.4L13.6 0ZM25 12.1 13.5 5.3v-.1h-.1l-.1-.1v.1L1.9 12.1v-9l11.5-1.2L25 3.1v9ZM13.4 6.8l11.5 6.7-4.5 2.6-7.1-4.2v1.4l5.9 3.5-.9.5-5-3v1.4l3.8 2.3-.8.5-3-1.8v1.4l1.9 1.1-1.8 1.1L2 13.6l11.4-6.8ZM1.9 15.1l11.4 6.8v1l-7.9-4.7v1.4l8 4.8v1.1l-8-4.7v1.4l8 4.8 8.1-4.9v-5.2l3.4-2v10l-11.5 6.9L1.9 25v-9.9Z"/>
  </symbol>

  <symbol viewBox="0 0 23 21" id="icon-like">
    <path d="m12.96 3.78-.62 3.05-.63 2.62h9.09v2.2l-3.03 7.25h-9.4V8.4l4.6-4.62ZM2.1 10.5v8.4-8.4ZM13.8 0 6.9 6.93c-.42.32-.63.84-.63 1.47v10.5c0 1.16.94 2.1 2.1 2.1h9.4c.84 0 1.57-.52 1.88-1.26l3.14-7.45c.1-.21.1-.53.1-.74v-2.1H23a2.1 2.1 0 0 0-2.1-2.1h-6.58l1.05-4.83v-.31c0-.43-.21-.84-.42-1.16L13.8 0ZM4.18 8.4H0V21h4.18V8.4Z"/>
  </symbol>
</svg>
